app/assets/images/Contenido/Odin/Advertencia.svg

<svg fill="none" height="136" viewBox="0 0 152 136" width="152" xmlns="http://www.w3.org/2000/svg"><path d="m97.2803 12.1861 50.9277 84.3283c7.319 12.1116 3.724 28.0466-8.033 35.5866-3.946 2.54-8.546 3.894-13.247 3.899h-101.8631c-13.8397 0-25.0649-11.56-25.0649-25.833 0-4.828 1.3148-9.55 3.78481-13.6526l50.93539-84.3283c7.3112-12.111614 22.7696-15.82142 34.5269-8.28092 3.2528 2.08535 6.004 4.91871 8.0332 8.28092zm-21.2801 93.5919c2.0157 0 3.9488-.797 5.374-2.213 1.4253-1.417 2.226-3.339 2.226-5.3431 0-2.0039-.8007-3.9257-2.226-5.3426-1.4252-1.417-3.3583-2.213-5.374-2.213-2.0156 0-3.9487.796-5.374 2.213-1.4253 1.4169-2.226 3.3387-2.226 5.3426 0 2.0041.8007 3.9261 2.226 5.3431 1.4253 1.416 3.3584 2.213 5.374 2.213zm0-68.001c-2.0156 0-3.9487.796-5.374 2.213-1.4253 1.4169-2.226 3.3387-2.226 5.3426v30.2225c0 2.0039.8007 3.9257 2.226 5.3426 1.4253 1.417 3.3584 2.213 5.374 2.213 2.0157 0 3.9488-.796 5.374-2.213 1.4253-1.4169 2.226-3.3387 2.226-5.3426v-30.2225c0-2.0039-.8007-3.9257-2.226-5.3426-1.4252-1.417-3.3583-2.213-5.374-2.213z" fill="#e97000"/></svg>

<svg width="152" height="136" viewBox="0 0 152 136" fill="none" xmlns="http://www.w3.org/2000/svg">
<path d="M97.2803 12.1861L148.208 96.5144C155.527 108.626 151.932 124.561 140.175 132.101C136.229 134.641 131.629 135.995 126.928 136H25.0649C11.2252 136 0 124.44 0 110.167C0 105.339 1.3148 100.617 3.78481 96.5144L54.7202 12.1861C62.0314 0.074486 77.4898 -3.63532 89.2471 3.90518C92.4999 5.99053 95.2511 8.82389 97.2803 12.1861ZM76.0002 105.778C78.0159 105.778 79.949 104.981 81.3742 103.565C82.7995 102.148 83.6002 100.226 83.6002 98.2219C83.6002 96.218 82.7995 94.2962 81.3742 92.8793C79.949 91.4623 78.0159 90.6663 76.0002 90.6663C73.9846 90.6663 72.0515 91.4623 70.6262 92.8793C69.2009 94.2962 68.4002 96.218 68.4002 98.2219C68.4002 100.226 69.2009 102.148 70.6262 103.565C72.0515 104.981 73.9846 105.778 76.0002 105.778ZM76.0002 37.777C73.9846 37.777 72.0515 38.573 70.6262 39.99C69.2009 41.4069 68.4002 43.3287 68.4002 45.3326V75.5551C68.4002 77.559 69.2009 79.4808 70.6262 80.8977C72.0515 82.3147 73.9846 83.1107 76.0002 83.1107C78.0159 83.1107 79.949 82.3147 81.3742 80.8977C82.7995 79.4808 83.6002 77.559 83.6002 75.5551V45.3326C83.6002 43.3287 82.7995 41.4069 81.3742 39.99C79.949 38.573 78.0159 37.777 76.0002 37.777Z" fill="#E97000"/>
</svg>
